X: 15
T: Cat's Meow, The
C: Joanie Madden
Z: Sean Perry
S: https://thesession.org/tunes/342#setting50919
R: jig
M: 6/8
L: 1/8
K: Dmaj
|:FAd ~f3|afe dBA|~B3 BAB|dAF E3|
FAd ~f3|afe dBA|B/c/de fdB|1AFE D3:|2AFE D2e||
|:fdB ABA|DFA def|gef ged|c/d/ed cBA|
fdB ABA|DFA def|gfe age|1edc d2e:|2edc dAG||
|:FAd a2a|agf agf|Ace g2g|gfe gfe|
f^ef gfg|a^ga ba=g|f/g/af gec|edc dAG:|

